src/assets/img/API.svg

<svg width="70" height="76" viewBox="0 0 70 76" fill="none" xmlns="http://www.w3.org/2000/svg">
<path d="M26.0176 69.1146C21.0249 67.6931 16.634 65.0758 12.8004 61.4206C11.5968 61.8493 10.3709 62.278 9.1227 62.6841C8.54319 62.8646 7.96368 62.7969 7.36189 62.5713C6.29202 62.1652 5.64565 61.3755 5.17758 60.4052C4.53121 59.1191 3.70652 57.9458 3.06015 56.6597C2.48064 55.4639 1.63366 54.426 1.14331 53.185C0.898134 52.5758 0.251759 52.1697 0.251759 51.4025C-0.32775 50.4549 0.22947 49.62 0.563802 48.7852C0.652958 48.5596 0.764402 48.2662 0.965001 48.176C1.7674 47.815 2.1686 47.0027 2.83726 46.5063C3.1493 46.2807 3.48364 46.0325 3.84026 45.7617C3.32761 43.167 2.88184 40.5722 2.88184 37.9097C2.88184 35.2699 3.3499 32.7202 3.84026 30.1931C2.97099 29.3809 2.1686 28.5912 1.32162 27.8466C0.452358 27.0794 -0.060284 26.1318 0.05116 25.139C0.118026 24.5975 0.274048 24.0108 0.541514 23.5596C1.3662 22.2283 2.12402 20.8294 2.92642 19.4756C3.57279 18.3926 4.13001 17.2644 4.84325 16.204C5.22216 15.6625 5.44505 15.0307 5.82396 14.4666C6.55949 13.4061 8.03055 12.8872 9.23415 13.2482C10.304 13.5641 11.307 14.0379 12.3992 14.241C12.5106 14.2635 12.5998 14.4215 12.7112 14.5343C16.5672 10.9016 20.9581 8.30686 25.9953 6.79513C26.1959 6.18592 26.2405 5.53159 26.4857 4.89982C26.664 4.42599 26.6194 3.83935 26.7086 3.3204C26.9537 1.96661 27.7784 1.1769 28.9597 0.770758C29.3832 0.635379 29.8067 0.5 30.3194 0.5C33.4398 0.545126 36.5602 0.545126 39.6807 0.5C40.5722 0.5 41.33 0.861011 42.0433 1.26715C42.6896 1.6056 43.0463 2.32762 43.2246 3.00451C43.5366 4.24549 43.7149 5.50903 43.9601 6.81769C48.9751 8.26173 53.366 10.8565 57.1997 14.5117C58.4032 14.083 59.6291 13.6543 60.8773 13.2482C61.4568 13.0677 62.0363 13.1354 62.6381 13.361C63.708 13.7671 64.3544 14.5569 64.8224 15.5271C65.4688 16.8132 66.2935 17.9865 66.9399 19.2726C67.5194 20.4684 68.3663 21.5063 68.8567 22.7473C69.1019 23.3565 69.7482 23.7626 69.7482 24.5298C70.3278 25.4774 69.7705 26.3123 69.4362 27.1471C69.347 27.3727 69.2356 27.6661 69.035 27.7563C68.2326 28.1173 67.8314 28.9296 67.1627 29.426C66.8507 29.6516 66.5164 29.8998 66.1597 30.1706C66.6724 32.7653 67.1182 35.3601 67.1182 38.0226C67.1182 40.6625 66.717 43.2121 66.1597 45.7392C67.029 46.5514 67.8314 47.3412 68.6784 48.0857C69.5476 48.8529 70.0603 49.8005 69.9488 50.7933C69.882 51.3348 69.7482 51.9215 69.4585 52.3727C68.6561 53.6814 67.8983 55.0352 67.1182 56.3664C66.1375 58.0135 65.3351 59.796 64.1983 61.3529C63.9977 62.2103 63.1953 62.278 62.6158 62.5939C61.9917 62.9323 61.3677 62.8421 60.6767 62.639C59.6514 62.3457 58.6707 61.8267 57.6008 61.6913C57.4894 61.6688 57.4003 61.5108 57.2888 61.398C53.4328 65.0758 49.0642 67.6931 43.9601 69.1597C43.7149 70.3782 43.492 71.6417 43.2246 72.8827C42.9571 74.1011 42.1547 74.8682 41.018 75.2292C40.5945 75.3646 40.1487 75.5 39.6584 75.5C36.5379 75.4549 33.4175 75.4549 30.2971 75.5C29.4055 75.5 28.6477 75.139 27.9345 74.7329C27.2881 74.3944 26.9092 73.6724 26.7754 72.9955C26.5303 71.6643 26.2851 70.4233 26.0176 69.1146ZM27.4664 49.2365C27.9122 48.9883 28.4248 48.8303 28.4471 48.2888C28.4917 47.4765 28.6031 46.6417 28.4248 45.8745C28.1128 44.5659 27.5555 43.3023 27.2212 41.9937C26.9983 41.1588 26.508 40.3691 26.5303 39.4666C25.817 37.6841 25.3712 35.8114 24.7694 34.0063C24.2791 32.5171 23.9225 30.9829 23.3875 29.5162C23.0978 28.704 23.0309 27.8014 22.496 27.0794C22.4514 27.0117 22.4291 26.9666 22.4291 26.9666C21.8273 26.5605 21.2032 26.6958 20.6683 26.6958C20.3563 26.9892 20.0888 27.2374 19.8436 27.463C19.8213 28.185 19.3087 28.7491 19.3978 29.4486C18.6177 31.2085 18.2834 33.1038 17.637 34.9088C17.3027 35.8339 17.1021 36.7816 16.8346 37.7292C16.5895 38.6769 16.0545 39.5343 16.0545 40.5496C15.2075 42.4675 14.7841 44.5208 14.16 46.5289C14.0039 47.0253 13.9148 47.4991 14.2268 47.9729C14.316 48.1083 14.2714 48.3114 14.2714 48.2888C14.628 48.6724 14.8955 48.9431 15.1184 49.2139C15.5419 49.2139 15.9877 49.2139 16.4557 49.2139C16.7678 48.8078 17.0798 48.4242 17.3696 48.0406C17.3027 46.7545 17.5702 45.8971 18.1497 44.5208C20.334 44.5208 22.5183 44.5208 24.7026 44.5208C24.8809 45.2428 24.97 45.9422 25.2152 46.5966C25.3267 46.8673 25.4381 47.1381 25.3935 47.4088C25.3267 48.2437 25.5941 48.898 26.5303 49.2139C26.7531 49.2365 27.0875 49.2365 27.4664 49.2365ZM32.682 49.2365C33.2838 49.1913 33.9747 49.3718 34.4651 48.8755C34.6434 48.6498 34.7994 48.4242 35.0223 48.1083C35.0223 45.852 35.0223 43.4829 35.0223 41.1137C36.6494 41.1137 38.2542 41.046 39.8367 41.1363C40.7951 41.1814 41.5752 40.8881 42.333 40.4143C42.6896 40.1886 43.0017 39.8502 43.3137 39.5343C44.1384 38.722 44.5396 37.7292 44.5619 36.556C44.5619 34.7058 44.5619 32.8782 44.5619 31.028C44.5619 30.7572 44.495 30.4639 44.4282 30.1931C44.183 29.2229 43.6703 28.5009 42.9794 27.8691C42.177 27.1245 41.2409 26.6733 40.1264 26.6733C37.6301 26.6733 35.156 26.6733 32.6374 26.6733C32.3922 26.944 32.147 27.2148 31.8573 27.4856C31.8573 34.435 31.8573 41.4296 31.8573 48.4468C32.147 48.6949 32.4145 48.9657 32.682 49.2365ZM48.7299 49.2365C50.2678 49.2365 51.828 49.2365 53.366 49.2365C53.6334 48.9657 53.9009 48.6949 54.1684 48.4468C54.1684 48.0181 54.1684 47.6119 54.1684 47.1832C54.1684 47.1381 54.1684 47.1155 54.1684 47.093C53.834 46.4612 53.3214 46.0776 52.6527 46.0099C52.6527 40.6173 52.6527 35.2473 52.6527 29.9901C53.1431 29.7419 53.5666 29.5162 54.0569 29.2455C54.1238 28.6588 54.1684 28.0496 54.213 27.6209C53.8563 27.2148 53.6112 26.9215 53.4106 26.6958C51.8058 26.6958 50.2455 26.6958 48.8636 26.6958C48.4847 27.0343 48.2173 27.2825 47.8829 27.5984C47.9498 28.1399 48.039 28.7491 48.1058 29.2681C48.6407 29.5388 49.0642 29.7644 49.4431 29.9675C49.4431 35.3375 49.4431 40.7076 49.4431 46.0325C49.2203 46.0776 48.9751 46.0325 48.8859 46.1453C48.5739 46.4612 48.039 46.5514 47.9275 47.0704C47.9275 47.5217 47.9275 47.9729 47.9275 48.4242C48.195 48.6949 48.4624 48.9657 48.7299 49.2365Z" fill="#a2d2a4"/>
<path d="M23.5213 41.0683C22.2063 41.1134 20.8243 41.136 19.4424 41.1811C19.3979 41.1811 19.331 41.2714 19.1973 41.3842C19.2196 39.9853 19.9997 38.8571 20.0888 37.571C20.7575 36.4428 20.8243 35.1116 21.2701 33.8481C21.4039 33.9835 21.6045 34.1188 21.6045 34.2317C21.6267 35.2019 22.184 36.0367 22.3623 36.9618C22.496 37.5936 22.8526 38.2028 22.9418 38.8345C23.0309 39.6468 23.5659 40.256 23.5213 41.0683Z" fill="#a2d2a4"/>
<path d="M41.4641 36.6917C41.3081 36.9399 41.1743 37.1881 40.996 37.4138C40.684 37.7748 40.2828 37.9778 39.7701 37.9553C38.2099 37.9327 36.6497 37.9553 35.0449 37.9553C35.0449 35.2703 35.0449 32.5852 35.0449 29.8325C36.672 29.8325 38.3437 29.81 39.993 29.8325C40.7731 29.8551 41.4418 30.6674 41.4641 31.5248C41.4641 32.9463 41.4641 34.3677 41.4641 35.7892C41.4641 36.1051 41.4641 36.3984 41.4641 36.6917Z" fill="#a2d2a4"/>
</svg>

<svg width="70" height="76" fill="none" xmlns="http://www.w3.org/2000/svg"><path d="M26.018 69.115c-4.993-1.422-9.384-4.04-13.218-7.694-1.203.428-2.43.857-3.677 1.263-.58.18-1.16.113-1.761-.113-1.07-.406-1.716-1.195-2.184-2.166-.647-1.286-1.471-2.46-2.118-3.745-.58-1.196-1.426-2.234-1.917-3.475-.245-.61-.891-1.015-.891-1.782-.58-.948-.023-1.783.312-2.618.089-.225.2-.519.401-.609.802-.361 1.204-1.173 1.872-1.67.312-.225.647-.474 1.003-.744-.512-2.595-.958-5.19-.958-7.852 0-2.64.468-5.19.958-7.717-.869-.812-1.671-1.602-2.518-2.346-.87-.768-1.382-1.715-1.27-2.708.066-.541.222-1.128.49-1.58.824-1.33 1.582-2.73 2.384-4.083.647-1.083 1.204-2.212 1.917-3.272.38-.542.602-1.173.981-1.737.735-1.06 2.207-1.58 3.41-1.219 1.07.316 2.073.79 3.165.993.112.023.2.18.312.293 3.856-3.632 8.247-6.227 13.284-7.739.2-.61.245-1.263.49-1.895.179-.474.134-1.06.224-1.58.245-1.353 1.07-2.143 2.25-2.55.424-.135.848-.27 1.36-.27 3.12.045 6.241.045 9.362 0 .891 0 1.649.361 2.362.767.647.339 1.003 1.06 1.182 1.738.312 1.24.49 2.504.735 3.813 5.015 1.444 9.406 4.039 13.24 7.694a140.41 140.41 0 0 1 3.677-1.264c.58-.18 1.16-.113 1.761.113 1.07.406 1.716 1.196 2.184 2.166.647 1.286 1.471 2.46 2.118 3.746.58 1.195 1.426 2.233 1.917 3.474.245.61.891 1.016.891 1.783.58.947.022 1.782-.312 2.617-.089.226-.2.52-.401.61-.802.36-1.204 1.173-1.872 1.669-.312.226-.647.474-1.003.745.512 2.594.958 5.19.958 7.852 0 2.64-.401 5.19-.958 7.716.869.812 1.671 1.602 2.518 2.347.87.767 1.382 1.715 1.27 2.707-.066.542-.2 1.129-.49 1.58-.802 1.308-1.56 2.662-2.34 3.993-.98 1.648-1.783 3.43-2.92 4.987-.2.857-1.003.925-1.582 1.24-.624.34-1.248.25-1.94.046-1.025-.293-2.005-.812-3.075-.948-.112-.022-.2-.18-.312-.293-3.856 3.678-8.225 6.295-13.329 7.762-.245 1.218-.468 2.482-.735 3.723-.268 1.218-1.07 1.985-2.207 2.346-.424.136-.87.271-1.36.271-3.12-.045-6.24-.045-9.36 0-.892 0-1.65-.361-2.363-.767-.647-.339-1.026-1.06-1.16-1.737-.245-1.332-.49-2.573-.757-3.881Zm1.448-19.878c.446-.249.959-.407.981-.948.045-.813.156-1.647-.022-2.415-.312-1.308-.87-2.572-1.204-3.88-.223-.835-.713-1.625-.69-2.527-.714-1.783-1.16-3.656-1.762-5.46-.49-1.49-.846-3.024-1.381-4.49-.29-.813-.357-1.716-.892-2.438-.045-.067-.067-.112-.067-.112-.602-.406-1.226-.271-1.76-.271-.313.293-.58.541-.825.767-.023.722-.535 1.286-.446 1.986-.78 1.76-1.115 3.655-1.761 5.46-.334.925-.535 1.873-.802 2.82-.245.948-.78 1.805-.78 2.82-.848 1.919-1.27 3.972-1.895 5.98-.156.496-.245.97.067 1.444.089.135.044.338.044.316.357.383.624.654.847.925h1.338c.312-.406.624-.79.914-1.173-.067-1.286.2-2.144.78-3.52h6.553c.178.722.267 1.421.512 2.076.112.27.223.541.178.812-.066.835.201 1.489 1.137 1.805.223.023.557.023.936.023Zm5.216 0c.602-.046 1.293.135 1.783-.361.178-.226.334-.452.557-.768v-6.994c1.627 0 3.232-.068 4.815.022.958.045 1.738-.248 2.496-.722.357-.225.669-.564.98-.88.825-.812 1.227-1.805 1.249-2.978v-5.528c0-.27-.067-.564-.134-.835-.245-.97-.758-1.692-1.449-2.324-.802-.744-1.738-1.196-2.853-1.196h-7.489c-.245.271-.49.542-.78.813v20.96c.29.249.557.52.825.79Zm16.048 0h4.636c.267-.271.535-.542.802-.79v-1.354c-.334-.632-.847-1.015-1.515-1.083V29.99c.49-.248.914-.474 1.404-.744.067-.587.111-1.196.156-1.625-.357-.406-.602-.7-.802-.925h-4.547c-.38.338-.647.586-.981.902.067.542.156 1.151.223 1.67.535.27.958.496 1.337.7v16.064c-.223.046-.468 0-.557.113-.312.316-.847.406-.959.925v1.354l.803.813Z" fill="#a2d2a4"/><path d="M23.521 41.068c-1.315.045-2.697.068-4.079.113-.044 0-.111.09-.245.203.023-1.399.803-2.527.892-3.813.669-1.128.735-2.46 1.181-3.723.134.136.335.27.335.384.022.97.579 1.805.757 2.73.134.632.49 1.24.58 1.872.089.813.624 1.422.58 2.234ZM41.464 36.692c-.156.248-.29.496-.468.722-.312.36-.713.564-1.226.541-1.56-.022-3.12 0-4.725 0v-8.122c1.627 0 3.299-.023 4.948 0 .78.022 1.449.834 1.471 1.692v5.167Z" fill="#a2d2a4"/></svg>
